src/assets/images/footer-discord.svg

<?xml version="1.0" encoding="UTF-8"?>
<svg width="24px" height="24px" viewBox="0 0 24 24" version="1.1" xmlns="http://www.w3.org/2000/svg" xmlns:xlink="http://www.w3.org/1999/xlink">
    <title>discord</title>
    <g id="Page-1" stroke="none" stroke-width="1" fill="none" fill-rule="evenodd">
        <g id="discord" fill-rule="nonzero">
            <circle id="ellipse" fill="#FFFFFF" cx="12" cy="12" r="12"></circle>
            <path d="M17.45625,7.9078125 C17.45625,7.9078125 15.8953125,6.684375 14.0484375,6.54375 L13.884375,6.8765625 C15.553125,7.284375 16.3171875,7.8703125 17.11875,8.5875 C15.740625,7.884375 14.3765625,7.2234375 12.0046875,7.2234375 C9.6328125,7.2234375 8.26875,7.884375 6.890625,8.5875 C7.6921875,7.8703125 8.6015625,7.21875 10.125,6.8765625 L9.9609375,6.54375 C8.025,6.7265625 6.553125,7.9078125 6.553125,7.9078125 C6.553125,7.9078125 4.809375,10.4390625 4.509375,15.4078125 C6.2671875,17.4375 8.9390625,17.4515625 8.9390625,17.4515625 L9.496875,16.70625 C8.55,16.378125 7.4765625,15.7875 6.553125,14.7234375 C7.6546875,15.5578125 9.3234375,16.4296875 12.009375,16.4296875 C14.6953125,16.4296875 16.359375,15.5625 17.465625,14.7234375 C16.5421875,15.7875 15.46875,16.378125 14.521875,16.70625 L15.0796875,17.4515625 C15.0796875,17.4515625 17.7515625,17.4375 19.509375,15.4078125 C19.2,10.4390625 17.45625,7.9078125 17.45625,7.9078125 Z M9.7828125,14.04375 C9.121875,14.04375 8.5875,13.434375 8.5875,12.6796875 C8.5875,11.925 9.121875,11.315625 9.7828125,11.315625 C10.44375,11.315625 10.978125,11.925 10.978125,12.6796875 C10.978125,13.434375 10.44375,14.04375 9.7828125,14.04375 Z M14.2171875,14.04375 C13.55625,14.04375 13.021875,13.434375 13.021875,12.6796875 C13.021875,11.925 13.55625,11.315625 14.2171875,11.315625 C14.878125,11.315625 15.4125,11.925 15.4125,12.6796875 C15.4125,13.434375 14.8734375,14.04375 14.2171875,14.04375 Z" id="logo" fill="#333333"></path>
        </g>
    </g>
</svg>

<svg xmlns="http://www.w3.org/2000/svg" viewBox="0 0 24 24"><g fill-rule="nonzero" fill="none"><circle fill="#FFF" cx="12" cy="12" r="12"/><path d="M17.456 7.908s-1.56-1.224-3.408-1.364l-.164.333c1.67.407 2.433.993 3.235 1.71-1.378-.703-2.742-1.364-5.114-1.364s-3.736.661-5.114 1.365c.801-.718 1.71-1.37 3.234-1.711l-.164-.333c-1.936.183-3.408 1.364-3.408 1.364s-1.744 2.531-2.044 7.5c1.758 2.03 4.43 2.044 4.43 2.044l.558-.746a6.807 6.807 0 0 1-2.944-1.983c1.102.835 2.77 1.707 5.456 1.707 2.686 0 4.35-.867 5.457-1.707a6.807 6.807 0 0 1-2.944 1.983l.558.746s2.672-.015 4.43-2.044c-.31-4.969-2.054-7.5-2.054-7.5Zm-7.673 6.136c-.661 0-1.195-.61-1.195-1.364 0-.755.534-1.364 1.195-1.364.66 0 1.195.609 1.195 1.364 0 .754-.534 1.364-1.195 1.364Zm4.434 0c-.66 0-1.195-.61-1.195-1.364 0-.755.534-1.364 1.195-1.364s1.195.609 1.195 1.364c0 .754-.539 1.364-1.195 1.364Z" fill="#333"/></g></svg>
